Numix/16/status/indicator-keyboard-Hy-3.svg

<?xml version="1.0" encoding="UTF-8" standalone="no"?>
<svg
   xmlns:dc="http://purl.org/dc/elements/1.1/"
   xmlns:cc="http://creativecommons.org/ns#"
   xmlns:rdf="http://www.w3.org/1999/02/22-rdf-syntax-ns#"
   xmlns:svg="http://www.w3.org/2000/svg"
   xmlns="http://www.w3.org/2000/svg"
   xmlns:sodipodi="http://sodipodi.sourceforge.net/DTD/sodipodi-0.dtd"
   xmlns:inkscape="http://www.inkscape.org/namespaces/inkscape"
   viewBox="0 0 16 16"
   id="svg2"
   version="1.1"
   inkscape:version="0.91 r13725"
   sodipodi:docname="indicator-keyboard-Hy-3.svg">
  <metadata
     id="metadata14">
    <rdf:RDF>
      <cc:Work
         rdf:about="">
        <dc:format>image/svg+xml</dc:format>
        <dc:type
           rdf:resource="http://purl.org/dc/dcmitype/StillImage" />
      </cc:Work>
    </rdf:RDF>
  </metadata>
  <defs
     id="defs12" />
  <sodipodi:namedview
     pagecolor="#ffffff"
     bordercolor="#666666"
     borderopacity="1"
     objecttolerance="10"
     gridtolerance="10"
     guidetolerance="10"
     inkscape:pageopacity="0"
     inkscape:pageshadow="2"
     inkscape:window-width="640"
     inkscape:window-height="480"
     id="namedview10"
     showgrid="false"
     inkscape:zoom="14.75"
     inkscape:cx="8"
     inkscape:cy="8"
     inkscape:window-x="65"
     inkscape:window-y="24"
     inkscape:window-maximized="0"
     inkscape:current-layer="svg2" />
  <path
     style="fill:#ececec;fill-opacity:1"
     d="M 1.5996094 0 C 0.71320937 2.9605947e-16 0 0.71320937 0 1.5996094 L 0 14.400391 C 2.9605947e-16 15.286791 0.71320937 16 1.5996094 16 L 14.400391 16 C 15.286791 16 16 15.286791 16 14.400391 L 16 1.5996094 C 16 0.71320937 15.286791 0 14.400391 0 L 1.5996094 0 z M 1.7480469 4.859375 L 2.359375 4.859375 L 2.359375 7.5683594 L 5.7441406 7.5683594 L 5.7441406 4.859375 L 6.3554688 4.859375 L 6.3554688 11.095703 L 5.7441406 11.095703 L 5.7441406 8.0996094 L 2.359375 8.0996094 L 2.359375 11.095703 L 1.7480469 11.095703 L 1.7480469 4.859375 z M 7.3398438 6.4433594 L 7.9609375 6.4433594 C 8.0269375 6.7313594 8.1108906 7.0429062 8.2128906 7.3789062 C 8.3148906 7.7089063 8.4306406 8.0502969 8.5566406 8.4042969 C 8.6886406 8.7582969 8.8322812 9.1221406 8.9882812 9.4941406 C 9.1442813 9.8661408 9.3121875 10.231797 9.4921875 10.591797 C 9.6241875 10.219797 9.7397969 9.8690627 9.8417969 9.5390625 C 9.9437969 9.2090625 10.037094 8.8825938 10.121094 8.5585938 C 10.211094 8.2285938 10.295047 7.8927812 10.373047 7.5507812 C 10.457047 7.2087813 10.544766 6.8393594 10.634766 6.4433594 L 11.220703 6.4433594 C 11.028703 7.3133594 10.8085 8.1584688 10.5625 8.9804688 C 10.3165 9.8024689 10.049719 10.556234 9.7617188 11.240234 C 9.6477188 11.510234 9.5301562 11.741594 9.4101562 11.933594 C 9.2901563 12.131594 9.1558594 12.293922 9.0058594 12.419922 C 8.8618594 12.545922 8.6901875 12.637266 8.4921875 12.697266 C 8.3001875 12.757266 8.0725938 12.787109 7.8085938 12.787109 C 7.6585937 12.787109 7.5205313 12.770375 7.3945312 12.734375 C 7.2745313 12.698375 7.1999219 12.670344 7.1699219 12.652344 L 7.2871094 12.167969 C 7.3111094 12.185969 7.376375 12.208281 7.484375 12.238281 C 7.598375 12.274281 7.7159375 12.292969 7.8359375 12.292969 C 8.0039375 12.292969 8.1531562 12.274281 8.2851562 12.238281 C 8.4231563 12.202281 8.5462969 12.140781 8.6542969 12.050781 C 8.7622969 11.966781 8.8593594 11.854797 8.9433594 11.716797 C 9.0333594 11.578797 9.119125 11.405313 9.203125 11.195312 C 9.005125 10.829313 8.8129531 10.448734 8.6269531 10.052734 C 8.4469531 9.6567342 8.2772344 9.2574688 8.1152344 8.8554688 C 7.9592344 8.4474688 7.8155937 8.042625 7.6835938 7.640625 C 7.5515938 7.232625 7.4358437 6.8333594 7.3398438 6.4433594 z M 12.882812 8.7539062 C 13.085612 8.7539062 13.259997 8.7793781 13.404297 8.8300781 C 13.552497 8.8807781 13.673984 8.953275 13.771484 9.046875 C 13.868984 9.136575 13.941481 9.2463 13.988281 9.375 C 14.035081 9.4997999 14.058594 9.6350031 14.058594 9.7832031 C 14.058594 10.021103 13.993934 10.217041 13.865234 10.369141 C 13.740434 10.517341 13.579759 10.625106 13.380859 10.691406 C 13.490059 10.718706 13.593912 10.759859 13.695312 10.818359 C 13.800612 10.872959 13.894663 10.945456 13.976562 11.035156 C 14.058463 11.120956 14.125081 11.226762 14.175781 11.351562 C 14.226481 11.476363 14.251953 11.623316 14.251953 11.791016 C 14.251953 11.962616 14.220603 12.119372 14.158203 12.263672 C 14.099703 12.407972 14.009572 12.535331 13.888672 12.644531 C 13.771672 12.749831 13.622753 12.834084 13.439453 12.896484 C 13.256153 12.954984 13.040622 12.984375 12.794922 12.984375 C 12.666222 12.984375 12.5467 12.974578 12.4375 12.955078 C 12.3322 12.939478 12.240103 12.919884 12.158203 12.896484 C 12.076303 12.873084 12.005766 12.849572 11.947266 12.826172 C 11.892666 12.802772 11.851519 12.783178 11.824219 12.767578 L 11.923828 12.427734 C 11.947228 12.443334 11.986416 12.462928 12.041016 12.486328 C 12.095616 12.509728 12.160275 12.533241 12.234375 12.556641 C 12.312375 12.576141 12.396634 12.593775 12.490234 12.609375 C 12.587734 12.624975 12.693541 12.632813 12.806641 12.632812 C 13.177141 12.632812 13.443616 12.556397 13.603516 12.404297 C 13.763416 12.248297 13.841797 12.040597 13.841797 11.779297 C 13.841797 11.607697 13.808488 11.464662 13.742188 11.351562 C 13.679787 11.238462 13.593569 11.148331 13.480469 11.082031 C 13.371269 11.011831 13.24195 10.962847 13.09375 10.935547 C 12.94945 10.904347 12.794659 10.888672 12.630859 10.888672 L 12.572266 10.888672 L 12.572266 10.574219 L 12.707031 10.574219 C 12.812331 10.574219 12.920097 10.564422 13.029297 10.544922 C 13.142397 10.521522 13.244284 10.480375 13.333984 10.421875 C 13.427584 10.363375 13.504 10.285 13.5625 10.1875 C 13.6249 10.09 13.654297 9.9646001 13.654297 9.8125 C 13.654297 9.6838 13.634697 9.5760281 13.591797 9.4863281 C 13.548897 9.3927281 13.490116 9.3182719 13.416016 9.2636719 C 13.345816 9.2090719 13.261562 9.1698844 13.164062 9.1464844 C 13.070462 9.1191844 12.970534 9.1054687 12.865234 9.1054688 C 12.654634 9.1054688 12.492 9.1348594 12.375 9.1933594 C 12.258 9.2518594 12.161991 9.3067219 12.087891 9.3574219 L 11.923828 9.0585938 C 11.962828 9.0312937 12.011812 8.9999437 12.070312 8.9648438 C 12.132713 8.9297437 12.205209 8.8964344 12.287109 8.8652344 C 12.369009 8.8340344 12.457187 8.8085625 12.554688 8.7890625 C 12.656087 8.7656625 12.765813 8.7539062 12.882812 8.7539062 z "
     id="path4" />
</svg>

<svg xmlns="http://www.w3.org/2000/svg" viewBox="0 0 16 16">
 <path d="m 1.6 0 c -0.886 0 -1.6 0.713 -1.6 1.6 l 0 12.801 c 0 0.886 0.713 1.6 1.6 1.6 l 12.801 0 c 0.886 0 1.6 -0.713 1.6 -1.6 l 0 -12.801 c 0 -0.886 -0.713 -1.6 -1.6 -1.6 l -12.801 0 z m 0.148 4.859 l 0.611 0 l 0 2.709 l 3.385 0 l 0 -2.709 l 0.611 0 l 0 6.236 l -0.611 0 l 0 -2.996 l -3.385 0 l 0 2.996 l -0.611 0 l 0 -6.236 z m 5.592 1.584 l 0.621 0 c 0.066 0.288 0.15 0.6 0.252 0.936 c 0.102 0.33 0.218 0.671 0.344 1.025 c 0.132 0.354 0.276 0.718 0.432 1.09 c 0.156 0.372 0.324 0.738 0.504 1.098 c 0.132 -0.372 0.248 -0.723 0.35 -1.053 c 0.102 -0.33 0.195 -0.656 0.279 -0.98 c 0.09 -0.33 0.174 -0.666 0.252 -1.01 c 0.084 -0.342 0.172 -0.711 0.262 -1.107 l 0.586 0 c -0.192 0.87 -0.412 1.715 -0.658 2.537 c -0.246 0.822 -0.513 1.576 -0.801 2.26 c -0.114 0.27 -0.232 0.501 -0.352 0.693 c -0.12 0.198 -0.254 0.36 -0.404 0.486 c -0.144 0.126 -0.316 0.217 -0.514 0.277 c -0.192 0.06 -0.42 0.09 -0.684 0.09 c -0.15 0 -0.288 -0.017 -0.414 -0.053 c -0.12 -0.036 -0.195 -0.064 -0.225 -0.082 l 0.117 -0.484 c 0.024 0.018 0.089 0.04 0.197 0.07 c 0.114 0.036 0.232 0.055 0.352 0.055 c 0.168 0 0.317 -0.019 0.449 -0.055 c 0.138 -0.036 0.261 -0.098 0.369 -0.188 c 0.108 -0.084 0.205 -0.196 0.289 -0.334 c 0.09 -0.138 0.176 -0.311 0.26 -0.521 c -0.198 -0.366 -0.39 -0.747 -0.576 -1.143 c -0.18 -0.396 -0.35 -0.795 -0.512 -1.197 c -0.156 -0.408 -0.3 -0.813 -0.432 -1.215 c -0.132 -0.408 -0.248 -0.807 -0.344 -1.197 z m 5.543 2.311 c 0.203 0 0.377 0.025 0.521 0.076 c 0.148 0.051 0.27 0.123 0.367 0.217 c 0.098 0.09 0.17 0.199 0.217 0.328 c 0.047 0.125 0.07 0.26 0.07 0.408 c 0 0.238 -0.065 0.434 -0.193 0.586 c -0.125 0.148 -0.285 0.256 -0.484 0.322 c 0.109 0.027 0.213 0.068 0.314 0.127 c 0.105 0.055 0.199 0.127 0.281 0.217 c 0.082 0.086 0.149 0.192 0.199 0.316 c 0.051 0.125 0.076 0.272 0.076 0.439 c 0 0.172 -0.031 0.328 -0.094 0.473 c -0.059 0.144 -0.149 0.272 -0.27 0.381 c -0.117 0.105 -0.266 0.19 -0.449 0.252 c -0.183 0.059 -0.399 0.088 -0.645 0.088 c -0.129 0 -0.248 -0.01 -0.357 -0.029 c -0.105 -0.016 -0.197 -0.035 -0.279 -0.059 c -0.082 -0.023 -0.152 -0.047 -0.211 -0.07 c -0.055 -0.023 -0.096 -0.043 -0.123 -0.059 l 0.1 -0.34 c 0.023 0.016 0.063 0.035 0.117 0.059 c 0.055 0.023 0.119 0.047 0.193 0.07 c 0.078 0.019 0.162 0.037 0.256 0.053 c 0.098 0.016 0.203 0.023 0.316 0.023 c 0.37 0 0.637 -0.076 0.797 -0.229 c 0.16 -0.156 0.238 -0.364 0.238 -0.625 c 0 -0.172 -0.033 -0.315 -0.1 -0.428 c -0.062 -0.113 -0.149 -0.203 -0.262 -0.27 c -0.109 -0.07 -0.239 -0.119 -0.387 -0.146 c -0.144 -0.031 -0.299 -0.047 -0.463 -0.047 l -0.059 0 l 0 -0.314 l 0.135 0 c 0.105 0 0.213 -0.01 0.322 -0.029 c 0.113 -0.023 0.215 -0.065 0.305 -0.123 c 0.094 -0.059 0.17 -0.137 0.229 -0.234 c 0.062 -0.098 0.092 -0.223 0.092 -0.375 c 0 -0.129 -0.02 -0.236 -0.063 -0.326 c -0.043 -0.094 -0.102 -0.168 -0.176 -0.223 c -0.07 -0.055 -0.154 -0.094 -0.252 -0.117 c -0.094 -0.027 -0.194 -0.041 -0.299 -0.041 c -0.211 0 -0.373 0.029 -0.49 0.088 c -0.117 0.059 -0.213 0.113 -0.287 0.164 l -0.164 -0.299 c 0.039 -0.027 0.088 -0.059 0.146 -0.094 c 0.062 -0.035 0.135 -0.068 0.217 -0.1 c 0.082 -0.031 0.17 -0.057 0.268 -0.076 c 0.101 -0.023 0.211 -0.035 0.328 -0.035 z" style="fill:#ececec;fill-opacity:1"/>
</svg>
